X:1
T:The Rambles Of Spring1
C:Tommy Makem
Z:Jon Freeman
N:Transcribed from memory. Learned from the singing of Father Liam Corish
M:4/4
L:1/8
K:C
G3/F/|EG cd e2 dc | A3/A/ FA G2 G3/F/ | EG cd ec fe | d3 G3/F/|
EG cd e2 dc | A3/A/ FA G2 c3/d/ | ec fe dc Bd | c3 ef|
g2 ed c2 eg | a2 fe d2 ef | ge fd ec dB | G3 ef |
gg ed c2 eg | a3/a/ fe d2 ef | ge fd BG ed | c3 |]
